public/assets/images/badge-check.svg

<svg width="50" height="50" viewBox="0 0 50 50" fill="none" xmlns="http://www.w3.org/2000/svg">
<path d="M18.7499 25.0004L22.9166 29.1671L31.2499 20.8338M16.3229 9.78584C17.8172 9.66657 19.2359 9.07897 20.377 8.10667C21.6664 7.00723 23.3054 6.40332 24.9999 6.40332C26.6944 6.40332 28.3335 7.00723 29.6229 8.10667C30.7639 9.07897 32.1826 9.66657 33.677 9.78584C35.3661 9.92022 36.952 10.6521 38.1501 11.8503C39.3482 13.0484 40.0801 14.6343 40.2145 16.3233C40.3338 17.8177 40.9214 19.2364 41.8937 20.3775C42.9931 21.6669 43.597 23.3059 43.597 25.0004C43.597 26.6949 42.9931 28.3339 41.8937 29.6233C40.9214 30.7644 40.3338 32.1831 40.2145 33.6775C40.0801 35.3666 39.3482 36.9525 38.1501 38.1506C36.952 39.3487 35.3661 40.0806 33.677 40.215C32.1826 40.3343 30.7639 40.9219 29.6229 41.8942C28.3335 42.9936 26.6944 43.5975 24.9999 43.5975C23.3054 43.5975 21.6664 42.9936 20.377 41.8942C19.2359 40.9219 17.8172 40.3343 16.3229 40.215C14.6338 40.0806 13.0479 39.3487 11.8498 38.1506C10.6517 36.9525 9.91973 35.3666 9.78535 33.6775C9.66608 32.1831 9.07848 30.7644 8.10618 29.6233C7.00674 28.3339 6.40283 26.6949 6.40283 25.0004C6.40283 23.3059 7.00674 21.6669 8.10618 20.3775C9.07848 19.2364 9.66608 17.8177 9.78535 16.3233C9.91973 14.6343 10.6517 13.0484 11.8498 11.8503C13.0479 10.6521 14.6338 9.92022 16.3229 9.78584Z" stroke="#FF588A" stroke-width="4" stroke-linecap="round" stroke-linejoin="round"/>
</svg>

<svg xmlns="http://www.w3.org/2000/svg" width="50" height="50" fill="none"><path stroke="#FF588A" stroke-linecap="round" stroke-linejoin="round" stroke-width="4" d="m18.75 25 4.167 4.167 8.333-8.333M16.323 9.786a7.125 7.125 0 0 0 4.054-1.68 7.125 7.125 0 0 1 9.246 0 7.124 7.124 0 0 0 4.054 1.68 7.125 7.125 0 0 1 6.538 6.537 7.125 7.125 0 0 0 1.679 4.055 7.125 7.125 0 0 1 0 9.245 7.125 7.125 0 0 0-1.68 4.055 7.125 7.125 0 0 1-6.537 6.537 7.125 7.125 0 0 0-4.054 1.68 7.125 7.125 0 0 1-9.246 0 7.125 7.125 0 0 0-4.054-1.68 7.125 7.125 0 0 1-6.538-6.538 7.125 7.125 0 0 0-1.679-4.054 7.125 7.125 0 0 1 0-9.245 7.125 7.125 0 0 0 1.68-4.055 7.125 7.125 0 0 1 6.537-6.537Z"/></svg>
